img/quality-features-7.svg

<svg width="37" height="37" viewBox="0 0 37 37" fill="none" xmlns="http://www.w3.org/2000/svg">
<path d="M16.866 37C16.3244 37.0009 15.8002 36.8093 15.3868 36.4595C14.9734 36.1096 14.6977 35.6244 14.609 35.0901L14.176 32.49C13.3333 32.2308 12.5156 31.8961 11.733 31.49L9.56103 33.0349C9.17657 33.3133 8.71369 33.4625 8.23904 33.4609C7.93856 33.4612 7.641 33.4019 7.36361 33.2864C7.08622 33.1709 6.83448 33.0016 6.62301 32.7881L4.32302 30.488C3.93885 30.1064 3.70303 29.6006 3.65777 29.061C3.61251 28.5214 3.76077 27.9832 4.07601 27.543L5.59902 25.4251C5.16684 24.6231 4.81254 23.7817 4.54101 22.9121L1.91302 22.4651C1.37693 22.3766 0.889918 22.0999 0.539331 21.6848C0.188744 21.2697 -0.00246801 20.7433 2.40551e-05 20.2V16.947C-0.0010853 16.4054 0.19042 15.881 0.540307 15.4675C0.890195 15.0541 1.37567 14.7784 1.91003 14.6899L4.47604 14.2571C4.73759 13.3837 5.0818 12.5371 5.50402 11.729L3.95904 9.55689C3.64516 9.11612 3.49771 8.57852 3.54293 8.03931C3.58816 7.5001 3.82311 6.99439 4.20602 6.61206L6.51702 4.31202C6.89904 3.92856 7.4048 3.69319 7.94418 3.64795C8.48355 3.60272 9.02148 3.75048 9.46203 4.06494L11.588 5.59595C12.3894 5.1631 13.2306 4.80862 14.1 4.53711L14.548 1.90894C14.6368 1.3757 14.9118 0.891298 15.3242 0.541752C15.7365 0.192205 16.2594 0.000241339 16.8 3.49794e-06H20.054C20.5954 -0.000943422 21.1196 0.190392 21.533 0.540043C21.9464 0.889693 22.2221 1.37486 22.311 1.90894L22.743 4.4751C23.647 4.74744 24.5221 5.10743 25.356 5.55005L27.505 4.02002C27.8892 3.74174 28.3517 3.59255 28.826 3.594C29.1264 3.59355 29.424 3.65272 29.7013 3.76807C29.9787 3.88342 30.2305 4.05279 30.442 4.26612L32.742 6.56592C33.1265 6.94758 33.3624 7.45384 33.4077 7.99366C33.453 8.53347 33.3046 9.07162 32.989 9.51197L31.459 11.6531C31.8843 12.4585 32.2335 13.3019 32.502 14.1721L35.102 14.613C35.6357 14.6997 36.1204 14.9751 36.468 15.3892C36.8157 15.8032 37.003 16.3283 36.996 16.8689V20.1231C36.997 20.6645 36.8055 21.1887 36.4559 21.6021C36.1062 22.0154 35.6211 22.291 35.087 22.3799L32.487 22.813C32.2188 23.6837 31.8696 24.5274 31.444 25.333L32.974 27.481C33.2879 27.9217 33.4353 28.4596 33.3901 28.9988C33.3449 29.538 33.1099 30.0437 32.727 30.426L30.427 32.7261C30.045 33.1095 29.5392 33.3447 28.9999 33.3899C28.4605 33.4351 27.9226 33.2874 27.482 32.9729L25.341 31.4431C24.5351 31.8681 23.6915 32.2172 22.821 32.4861L22.381 35.0859C22.2924 35.6202 22.0167 36.1057 21.6033 36.4556C21.1899 36.8054 20.6656 36.997 20.124 36.9961L16.866 37ZM12.198 29.3789C13.1917 29.9515 14.2575 30.3887 15.367 30.679C15.5617 30.7288 15.7376 30.8343 15.8735 30.9824C16.0093 31.1305 16.0991 31.3147 16.132 31.5129L16.673 34.76C16.6805 34.8075 16.7048 34.8508 16.7415 34.8818C16.7782 34.9129 16.8249 34.9295 16.873 34.929H20.127C20.1751 34.9295 20.2218 34.9129 20.2585 34.8818C20.2953 34.8508 20.3196 34.8075 20.327 34.76L20.876 31.5129C20.9077 31.3142 20.9971 31.1292 21.1331 30.981C21.2692 30.8327 21.4458 30.7276 21.641 30.679C22.7791 30.3869 23.8698 29.934 24.88 29.334C25.0538 29.2314 25.2534 29.1814 25.455 29.1897C25.6565 29.198 25.8514 29.2646 26.016 29.3811L28.698 31.29C28.7313 31.3157 28.772 31.3298 28.814 31.3301C28.8415 31.3304 28.8687 31.3249 28.894 31.3142C28.9193 31.3035 28.9421 31.2879 28.961 31.2681L31.261 28.968C31.2944 28.9334 31.3148 28.8884 31.319 28.8406C31.3232 28.7927 31.3109 28.7449 31.284 28.7051L29.375 26.0149C29.2585 25.8504 29.1921 25.6558 29.184 25.4543C29.1758 25.2529 29.2262 25.0533 29.329 24.8799C29.9288 23.8695 30.3817 22.7791 30.674 21.6411C30.7241 21.4463 30.8297 21.27 30.9779 21.134C31.1261 20.9981 31.3106 20.9082 31.509 20.875L34.755 20.334C34.8027 20.3268 34.8462 20.3026 34.8774 20.2659C34.9087 20.2291 34.9256 20.1823 34.925 20.134H34.932V16.8799C34.9326 16.8317 34.9157 16.785 34.8844 16.7483C34.8532 16.7115 34.8097 16.6872 34.762 16.6799L31.516 16.1311C31.3172 16.0998 31.132 16.0104 30.9836 15.8743C30.8353 15.7382 30.7304 15.5614 30.682 15.366C30.3893 14.2284 29.9365 13.1381 29.337 12.1279C29.2343 11.9541 29.184 11.7543 29.1924 11.5525C29.2007 11.3507 29.2673 11.1557 29.384 10.991L31.293 8.31006C31.3201 8.27012 31.3326 8.22191 31.3284 8.17383C31.3242 8.12575 31.3036 8.08056 31.27 8.0459L28.97 5.7461C28.9508 5.7266 28.9279 5.71108 28.9027 5.70044C28.8775 5.6898 28.8504 5.68424 28.823 5.68409C28.7814 5.68667 28.7414 5.70053 28.707 5.72412L26.04 7.6399C25.8755 7.75679 25.6806 7.82345 25.479 7.83179C25.2774 7.84013 25.0776 7.78992 24.904 7.68702C23.8697 7.07695 22.7529 6.61881 21.588 6.32691C21.3914 6.27638 21.2136 6.16992 21.0764 6.02027C20.9391 5.87061 20.8484 5.68418 20.815 5.48389L20.274 2.26099C20.2668 2.2133 20.2426 2.16992 20.2058 2.13868C20.1691 2.10744 20.1223 2.09052 20.074 2.09107H16.82C16.7718 2.09052 16.725 2.10744 16.6882 2.13868C16.6515 2.16992 16.6273 2.2133 16.62 2.26099L16.064 5.53101C16.0282 5.72822 15.9373 5.91123 15.8017 6.05884C15.6661 6.20646 15.4915 6.31262 15.298 6.36499C14.1616 6.66137 13.0738 7.11982 12.068 7.72608C11.8929 7.82883 11.692 7.87894 11.4891 7.87061C11.2863 7.86228 11.0901 7.79573 10.924 7.67896L8.25701 5.77906C8.21786 5.75029 8.16958 5.73674 8.12118 5.74097C8.07278 5.7452 8.02758 5.76688 7.99401 5.80201L5.69402 8.10205C5.66076 8.13693 5.64044 8.1822 5.63644 8.23023C5.63243 8.27826 5.64499 8.32607 5.67202 8.36597L7.59603 11.0659C7.71384 11.2287 7.78166 11.4224 7.79125 11.6231C7.80084 11.8237 7.75177 12.0228 7.65002 12.196C7.05731 13.2096 6.61249 14.3025 6.32903 15.4419C6.27869 15.6386 6.17213 15.8163 6.02242 15.9534C5.87272 16.0905 5.68633 16.1812 5.48602 16.2141L2.26302 16.7549C2.21533 16.7621 2.17186 16.7865 2.14062 16.8232C2.10938 16.86 2.09247 16.9068 2.09301 16.9551V20.208C2.09247 20.2562 2.10938 20.3031 2.14062 20.3398C2.17186 20.3766 2.21533 20.4007 2.26302 20.408L5.53301 20.9641C5.73041 20.9997 5.91365 21.0905 6.06146 21.2261C6.20926 21.3617 6.31559 21.5364 6.36804 21.73C6.66403 22.8663 7.12205 23.9541 7.72802 24.96C7.83088 25.1352 7.88123 25.3363 7.87307 25.5393C7.86492 25.7423 7.79862 25.9386 7.68203 26.105L5.78204 28.771C5.75503 28.8108 5.74254 28.8586 5.74673 28.9065C5.75092 28.9544 5.77151 28.9994 5.80502 29.0339L8.10503 31.334C8.1243 31.3534 8.14719 31.3687 8.17242 31.3792C8.19765 31.3896 8.22472 31.3951 8.25204 31.395C8.29337 31.3927 8.33337 31.3796 8.36804 31.3569L11.073 29.4319C11.2475 29.3055 11.4576 29.2381 11.673 29.239C11.8577 29.2393 12.0392 29.2871 12.2 29.3779L12.198 29.3789ZM10.52 18.4961C10.5202 16.9171 10.9886 15.3736 11.866 14.0608C12.7434 12.748 13.9903 11.7248 15.4492 11.1206C16.908 10.5164 18.5132 10.3584 20.0619 10.6665C21.6105 10.9746 23.033 11.735 24.1496 12.8516C25.2661 13.9681 26.0265 15.3906 26.3346 16.9392C26.6427 18.4879 26.4846 20.0932 25.8805 21.552C25.2763 23.0109 24.2531 24.2576 22.9403 25.135C21.6275 26.0124 20.084 26.4808 18.505 26.481C16.3874 26.4799 14.3569 25.6381 12.8596 24.1406C11.3623 22.6432 10.5208 20.6127 10.52 18.4951V18.4961ZM12.607 18.4961C12.607 19.663 12.953 20.8037 13.6013 21.7739C14.2496 22.7442 15.1711 23.5002 16.2492 23.9468C17.3273 24.3933 18.5136 24.5104 19.658 24.2827C20.8025 24.0551 21.8538 23.4931 22.6789 22.668C23.5041 21.8428 24.066 20.7915 24.2937 19.647C24.5213 18.5025 24.4045 17.3164 23.9579 16.2383C23.5114 15.1602 22.7551 14.2386 21.7849 13.5903C20.8146 12.942 19.6739 12.596 18.507 12.596C16.9424 12.596 15.4419 13.2175 14.3354 14.3237C13.229 15.43 12.6073 16.9305 12.607 18.4951V18.4961Z" fill="#40975F"/>
</svg>

<svg width="37" height="37" fill="none" xmlns="http://www.w3.org/2000/svg"><path d="M16.866 37a2.284 2.284 0 0 1-2.257-1.91l-.433-2.6c-.843-.26-1.66-.594-2.443-1l-2.172 1.545a2.272 2.272 0 0 1-2.938-.247l-2.3-2.3a2.28 2.28 0 0 1-.247-2.945l1.523-2.118a14.251 14.251 0 0 1-1.058-2.513l-2.628-.447A2.285 2.285 0 0 1 0 20.2v-3.253a2.283 2.283 0 0 1 1.91-2.257l2.566-.433c.262-.873.606-1.72 1.028-2.528L3.959 9.557a2.287 2.287 0 0 1 .247-2.945l2.311-2.3a2.284 2.284 0 0 1 2.945-.247l2.126 1.53A14.18 14.18 0 0 1 14.1 4.538l.448-2.628A2.284 2.284 0 0 1 16.8 0h3.254a2.284 2.284 0 0 1 2.257 1.909l.432 2.566c.904.272 1.78.632 2.613 1.075l2.149-1.53a2.27 2.27 0 0 1 2.937.246l2.3 2.3a2.28 2.28 0 0 1 .247 2.946l-1.53 2.141c.425.806.774 1.649 1.043 2.52l2.6.44a2.255 2.255 0 0 1 1.894 2.256v3.254a2.284 2.284 0 0 1-1.909 2.257l-2.6.433c-.268.87-.617 1.714-1.043 2.52l1.53 2.148a2.287 2.287 0 0 1-.247 2.945l-2.3 2.3a2.284 2.284 0 0 1-2.945.247l-2.141-1.53c-.806.425-1.65.774-2.52 1.043l-.44 2.6a2.284 2.284 0 0 1-2.257 1.91L16.866 37Zm-4.668-7.621c.994.572 2.06 1.01 3.169 1.3a1.036 1.036 0 0 1 .765.834l.541 3.247a.2.2 0 0 0 .2.169h3.254a.2.2 0 0 0 .2-.169l.549-3.247a1.026 1.026 0 0 1 .765-.834 12.36 12.36 0 0 0 3.239-1.345 1.046 1.046 0 0 1 1.136.047l2.682 1.909a.192.192 0 0 0 .196.024.2.2 0 0 0 .067-.046l2.3-2.3a.21.21 0 0 0 .023-.263l-1.909-2.69a1.042 1.042 0 0 1-.046-1.135c.6-1.01 1.053-2.1 1.345-3.239a1.04 1.04 0 0 1 .835-.766l3.246-.541a.2.2 0 0 0 .17-.2h.007V16.88a.199.199 0 0 0-.17-.2l-3.246-.549a1.023 1.023 0 0 1-.834-.765 12.399 12.399 0 0 0-1.345-3.238 1.046 1.046 0 0 1 .047-1.137l1.909-2.68a.21.21 0 0 0-.023-.265l-2.3-2.3a.208.208 0 0 0-.147-.062.23.23 0 0 0-.116.04L26.04 7.64a1.043 1.043 0 0 1-1.136.047 12.514 12.514 0 0 0-3.316-1.36 1.048 1.048 0 0 1-.773-.843l-.541-3.223a.2.2 0 0 0-.2-.17H16.82a.2.2 0 0 0-.2.17l-.556 3.27a1.06 1.06 0 0 1-.766.834 12.241 12.241 0 0 0-3.23 1.361 1.058 1.058 0 0 1-1.144-.047l-2.667-1.9a.2.2 0 0 0-.263.023l-2.3 2.3a.211.211 0 0 0-.022.264l1.924 2.7a1.035 1.035 0 0 1 .054 1.13 12.324 12.324 0 0 0-1.321 3.246 1.045 1.045 0 0 1-.843.772l-3.223.54a.2.2 0 0 0-.17.201v3.253a.2.2 0 0 0 .17.2l3.27.556a1.06 1.06 0 0 1 .835.766 12.237 12.237 0 0 0 1.36 3.23 1.06 1.06 0 0 1-.046 1.145l-1.9 2.666a.209.209 0 0 0 .023.263l2.3 2.3a.207.207 0 0 0 .147.061.236.236 0 0 0 .116-.038l2.705-1.925c.175-.127.385-.194.6-.193.185 0 .366.048.527.139h-.002ZM10.52 18.496a7.984 7.984 0 1 1 15.968.004 7.984 7.984 0 0 1-15.968-.005v.001Zm2.087 0a5.9 5.9 0 1 0 11.8.002 5.9 5.9 0 0 0-11.8-.003v.001Z" fill="#40975F"/></svg>
